X:199
T:Trip up Stairs
M:6/8
L:1/8
B:Thompson's Compleat Collection of 200 Favourite Country Dances, vol. 1 (London, 1757)
Z:Transcribed and edited by Flynn Titford-Mock, 2007
Z:abc's:AK/Fiddler's Companion
K:D
d2e f2d|e2c d2B|B2f fdB|BcB fdB|d2e f2d|e2c d2B|A2e ecA|ABA ecA:|
|:d2g (f/g/a)f|(e/f/g)e (d/e/f)d|B2f fdB|BcB fdB|d2g (f/g/a)f|(e/f/g)e (d/e/f)d|A2e ecA|ABA ecA:|

